X: 18497
T: I Buried My Wife And Danced On Her Grave
R: jig
M: 6/8
K: Gmajor
|:G,A,G, B,2C|DGE =FDB,|~C3 EDC|~B,3 CA,G,|
~G,3 B,2C|DGE =FDB,|~C3 EDC|DB,G, G,3:|
|:G2A BAG|BdB cAF|G2A BAG|GFD GFD|
G2A BAG|BdB cAF|GFD EDC|DB,G, G,3:|

